svgs/sharp-light/magnifying-glass-chart.svg

<svg xmlns="http://www.w3.org/2000/svg" viewBox="0 0 512 512"><!--! Font Awesome Pro 6.6.0 by @fontawesome - https://fontawesome.com License - https://fontawesome.com/license (Commercial License) Copyright 2024 Fonticons, Inc. --><path d="M208 32a176 176 0 1 1 0 352 176 176 0 1 1 0-352zm0 384c51.7 0 99-18.8 135.3-50L487.9 510.5l22.6-22.6L366 343.3c31.2-36.4 50-83.7 50-135.3C416 93.1 322.9 0 208 0S0 93.1 0 208S93.1 416 208 416zM128 224l0 64 0 16 32 0 0-16 0-64 0-16-32 0 0 16zm64-96l0 160 0 16 32 0 0-16 0-160 0-16-32 0 0 16zm64 64l0 96 0 16 32 0 0-16 0-96 0-16-32 0 0 16z"/></svg>

<svg xmlns="http://www.w3.org/2000/svg" viewBox="0 0 512 512"><!--! Font Awesome Pro 6.4.0 by @fontawesome - https://fontawesome.com License - https://fontawesome.com/license (Commercial License) Copyright 2023 Fonticons, Inc. --><path d="M208 32a176 176 0 1 1 0 352 176 176 0 1 1 0-352zm0 384c51.7 0 99-18.8 135.3-50L487.9 510.5l22.6-22.6L366 343.3c31.2-36.4 50-83.7 50-135.3C416 93.1 322.9 0 208 0S0 93.1 0 208S93.1 416 208 416zM128 224l0 64v16h32V288l0-64V208H128v16zm64-96V288l0 16h32l0-16V128 112H192v16zm64 64v96 16h32V288 192 176H256v16z"/></svg>
